web/public/images/buckleup.svg

<?xml version="1.0" encoding="UTF-8" standalone="no"?>
<svg width="104px" height="34px" viewBox="0 0 104 34" version="1.1" xmlns="http://www.w3.org/2000/svg" xmlns:xlink="http://www.w3.org/1999/xlink">
    <!-- Generator: Sketch 3.8.3 (29802) - http://www.bohemiancoding.com/sketch -->
    <title>Group 2 Copy 5</title>
    <desc>Created with Sketch.</desc>
    <defs>
        <filter x="-50%" y="-50%" width="200%" height="200%" filterUnits="objectBoundingBox" id="filter-1">
            <feOffset dx="0" dy="0" in="SourceAlpha" result="shadowOffsetOuter1"></feOffset>
            <feGaussianBlur stdDeviation="3.5" in="shadowOffsetOuter1" result="shadowBlurOuter1"></feGaussianBlur>
            <feColorMatrix values="0 0 0 0 0.901960784   0 0 0 0 0.494117647   0 0 0 0 0.133333333  0 0 0 0.55041327 0" type="matrix" in="shadowBlurOuter1" result="shadowMatrixOuter1"></feColorMatrix>
            <feMerge>
                <feMergeNode in="shadowMatrixOuter1"></feMergeNode>
                <feMergeNode in="SourceGraphic"></feMergeNode>
            </feMerge>
        </filter>
    </defs>
    <g id="Page-1" stroke="none" stroke-width="1" fill="none" fill-rule="evenodd">
        <g id="Group-2-Copy-5" filter="url(#filter-1)" transform="translate(7.000000, 7.000000)">
            <path d="M14.787,2.59100066 C7.983,0.661000657 6.804,10.0560007 0,6.93500066 L0,18.9290007 C6.747,22.0560007 7.967,12.6700007 14.771,14.5820007 L14.771,15.0310007 C14.771,16.6260007 16.073,17.9280007 17.667,17.9280007 L30.343,17.9280007 C31.939,17.9280007 33.24,16.6260007 33.24,15.0310007 L33.24,2.89700066 C33.24,1.30300066 31.939,6.57387919e-07 30.343,6.57387919e-07 L17.667,6.57387919e-07 C16.175,-0.000999342612 14.939,1.13900066 14.787,2.59100066 L14.787,2.59100066 L14.787,2.59100066 Z M20.774,3.55400066 L27.238,3.55400066 C28.515,3.55400066 29.554,4.59300066 29.554,5.87000066 L29.554,12.0580007 C29.554,13.3330007 28.514,14.3750007 27.238,14.3750007 L20.774,14.3750007 C19.502,14.3750007 18.457,13.3280007 18.457,12.0580007 L18.457,5.87000066 C18.457,4.59400066 19.498,3.55400066 20.774,3.55400066 L20.774,3.55400066 L20.774,3.55400066 Z M26.964,5.54700066 C27.285,5.54700066 27.549,5.81100066 27.549,6.13100066 L27.549,11.7970007 C27.549,12.1160007 27.284,12.3800007 26.964,12.3800007 L21.046,12.3800007 C20.722,12.3800007 20.461,12.1190007 20.461,11.7970007 L20.461,6.13100066 C20.461,5.84700066 20.735,5.54700066 21.046,5.54700066 L26.964,5.54700066 L26.964,5.54700066 Z" id="Shape" fill="#E67E22"></path>
            <path d="M68.199,0 L71.792,0 C73.318,0 74.576,1.194 74.681,2.692 C81.6,0.332 82.895,10.102 89.814,6.929 L89.814,18.923 C82.951,22.105 81.608,12.332 74.688,14.684 L74.688,15.031 C74.688,16.623 73.384,17.927 71.792,17.927 L68.199,17.927 C66.606,17.927 65.302,16.625 65.302,15.031 L65.302,14.275 L60.54,14.275 C59.843,14.275 59.21,13.99 58.75,13.53 L58.745,13.526 C58.284,13.066 58,12.431 58,11.736 L58,6.189 C58,5.49 58.286,4.852 58.744,4.394 L58.749,4.394 C59.21,3.936 59.843,3.65 60.541,3.65 L65.303,3.65 L65.303,2.895 C65.302,1.301 66.603,0 68.199,0 L68.199,0 L68.199,0 Z M65.302,11.152 L65.302,6.775 L62.406,6.775 C62.076,6.775 61.776,6.911 61.558,7.128 L61.555,7.128 C61.339,7.344 61.203,7.646 61.203,7.977 L61.203,9.949 C61.203,10.279 61.338,10.579 61.556,10.797 L61.558,10.798 C61.775,11.016 62.075,11.151 62.405,11.151 L65.302,11.151 L65.302,11.152 L65.302,11.152 Z M71.357,5.195 C71.357,1.37 68.631,1.362 68.631,5.195 L68.631,12.73 C68.631,16.564 71.357,16.555 71.357,12.73 L71.357,5.195 L71.357,5.195 Z" id="Shape" fill="#E67E22"></path>
            <polygon id="Shape" fill="#E74C3C" points="52.872 12.776 46.653 12.776 46.653 16.94 39 9.471 46.653 2 46.653 6.166 52.872 6.166"></polygon>
        </g>
    </g>
</svg>

<svg xmlns="http://www.w3.org/2000/svg" width="104" height="34"><defs><filter id="a" width="200%" height="200%" x="-50%" y="-50%" filterUnits="objectBoundingBox"><feOffset in="SourceAlpha" result="shadowOffsetOuter1"/><feGaussianBlur in="shadowOffsetOuter1" result="shadowBlurOuter1" stdDeviation="3.5"/><feColorMatrix in="shadowBlurOuter1" result="shadowMatrixOuter1" values="0 0 0 0 0.901960784 0 0 0 0 0.494117647 0 0 0 0 0.133333333 0 0 0 0.55041327 0"/><feMerge><feMergeNode in="shadowMatrixOuter1"/><feMergeNode in="SourceGraphic"/></feMerge></filter></defs><g fill="none" fill-rule="evenodd" filter="url(#a)" transform="translate(7 7)"><path fill="#E67E22" d="M14.787 2.591C7.983.661 6.804 10.056 0 6.935v11.994c6.747 3.127 7.967-6.259 14.771-4.347v.449a2.903 2.903 0 0 0 2.896 2.897h12.676a2.903 2.903 0 0 0 2.897-2.897V2.897A2.903 2.903 0 0 0 30.343 0H17.667a2.9 2.9 0 0 0-2.88 2.591m5.987.963h6.464a2.32 2.32 0 0 1 2.316 2.316v6.188a2.32 2.32 0 0 1-2.316 2.317h-6.464a2.33 2.33 0 0 1-2.317-2.317V5.87a2.32 2.32 0 0 1 2.317-2.316m6.19 1.993c.321 0 .585.264.585.584v5.666a.59.59 0 0 1-.585.583h-5.918a.583.583 0 0 1-.585-.583V6.131c0-.284.274-.584.585-.584zM68.199 0h3.593a2.905 2.905 0 0 1 2.889 2.692c6.919-2.36 8.214 7.41 15.133 4.237v11.994c-6.863 3.182-8.206-6.591-15.126-4.239v.347a2.906 2.906 0 0 1-2.896 2.896h-3.593a2.904 2.904 0 0 1-2.897-2.896v-.756H60.54c-.697 0-1.33-.285-1.79-.745l-.005-.004a2.53 2.53 0 0 1-.745-1.79V6.189c0-.699.286-1.337.744-1.795h.005a2.54 2.54 0 0 1 1.792-.744h4.762v-.755A2.9 2.9 0 0 1 68.199 0m-2.897 11.152V6.775h-2.896a1.2 1.2 0 0 0-.848.353h-.003a1.2 1.2 0 0 0-.352.849v1.972c0 .33.135.63.353.848l.002.001c.217.218.517.353.847.353zm6.055-5.957c0-3.825-2.726-3.833-2.726 0v7.535c0 3.834 2.726 3.825 2.726 0z"/><path fill="#E74C3C" d="M52.872 12.776h-6.219v4.164L39 9.471 46.653 2v4.166h6.219z"/></g></svg>
